public/static/icons/point-icon.svg

<svg version="1.1" xmlns="http://www.w3.org/2000/svg" xmlns:xlink="http://www.w3.org/1999/xlink" width="15" height="20" viewBox="0,0,192,256"><g fill="#1868df" fill-rule="nonzero" stroke="none" stroke-width="1" stroke-linecap="butt" stroke-linejoin="miter" stroke-miterlimit="10" stroke-dasharray="" stroke-dashoffset="0" font-family="none" font-weight="none" font-size="none" text-anchor="none" style="mix-blend-mode: normal"><g transform="translate(1.75168,0) scale(12.8,12.8)"><path d="M7.36286,0c-4.05968,0 -7.36286,3.30318 -7.36286,7.36327c0,1.05903 0.21676,2.07017 0.64393,3.00553c1.84092,4.0284 5.37048,8.2815 6.40863,9.4889c0.07778,0.0903 0.19118,0.1423 0.31051,0.1423c0.11933,0 0.23272,-0.052 0.3105,-0.1423c1.03775,-1.2072 4.56733,-5.4601 6.40883,-9.4889c0.4274,-0.93536 0.6439,-1.9465 0.6439,-3.00553c-0.0004,-4.06009 -3.3035,-7.36327 -7.36344,-7.36327zM7.36286,11.1878c-2.10885,0 -3.82471,-1.71588 -3.82471,-3.82473c0,-2.10906 1.71586,-3.82492 3.82471,-3.82492c2.10885,0 3.82474,1.71586 3.82474,3.82492c0.0002,2.10885 -1.71568,3.82473 -3.82474,3.82473z"></path></g></g></svg>

<svg width="15" height="20" viewBox="0 0 15 20" fill="none" xmlns="http://www.w3.org/2000/svg">
<path d="M7.36286 0C3.30318 0 0 3.30318 0 7.36327C0 8.4223 0.216759 9.43344 0.643933 10.3688C2.48485 14.3972 6.01441 18.6503 7.05256 19.8577C7.13034 19.948 7.24374 20 7.36307 20C7.4824 20 7.59579 19.948 7.67357 19.8577C8.71132 18.6505 12.2409 14.3976 14.0824 10.3688C14.5098 9.43344 14.7263 8.4223 14.7263 7.36327C14.7259 3.30318 11.4228 0 7.36286 0ZM7.36286 11.1878C5.25401 11.1878 3.53815 9.47192 3.53815 7.36307C3.53815 5.25401 5.25401 3.53815 7.36286 3.53815C9.47171 3.53815 11.1876 5.25401 11.1876 7.36307C11.1878 9.47192 9.47192 11.1878 7.36286 11.1878Z" fill="#D8A835"/>
</svg>
